src/assets/images/bg-boost-desktop.svg

<svg xmlns="http://www.w3.org/2000/svg" width="1440" height="250"><g fill="#4B3F6B" fill-rule="evenodd"><path d="M830-63.482C830 19.351 854.36 78.678 944.732 117c90.371 38.321 177.686 3.352 265.277 23.4 87.59 20.048 87.59 149.195 170.077 228.671 82.486 79.476 256.405 98.781 397.82 18.15 141.415-80.632 205.52-268.896 163.267-379.902C1898.919-103.687 1817.943-205 1427.236-205S830-146.314 830-63.482zM-263.351 570.909c29.685 77.331 73.689 123.988 171.79 127.377 98.102 3.39 167.085-60.547 256.043-73.22 88.958-12.674 135.24 107.895 240.73 152.532 105.488 44.638 274.775.333 377.9-125.622C886.24 526.021 878.62 327.29 799.392 238.798 720.162 150.307 608.257 84.743 243.5 224.76c-364.757 140.017-536.537 268.818-506.852 346.149zM-514-377.482c0 82.833 24.36 142.16 114.732 180.482 90.371 38.321 177.686 3.352 265.277 23.4 87.59 20.048 87.59 149.195 170.077 228.671 82.486 79.476 256.405 98.781 397.82 18.15 141.415-80.632 205.52-268.896 163.267-379.902C554.919-417.687 473.943-519 83.236-519S-514-460.314-514-377.482z"/></g></svg>

<svg width="1440" height="250" viewBox="0 0 1440 250" fill="none" xmlns="http://www.w3.org/2000/svg">
<g clip-path="url(#clip0)">
<rect width="1440" height="250" fill="#3A3053"/>
<path fill-rule="evenodd" clip-rule="evenodd" d="M830 -63.482C830 19.351 854.36 78.678 944.732 117C1035.1 155.321 1122.42 120.352 1210.01 140.4C1297.6 160.448 1297.6 289.595 1380.09 369.071C1462.57 448.547 1636.49 467.852 1777.91 387.221C1919.32 306.589 1983.43 118.325 1941.17 7.31897C1898.92 -103.687 1817.94 -205 1427.24 -205C1036.53 -205 830 -146.314 830 -63.482ZM-263.351 570.909C-233.666 648.24 -189.662 694.897 -91.561 698.286C6.54099 701.676 75.524 637.739 164.482 625.066C253.44 612.392 299.722 732.961 405.212 777.598C510.7 822.236 679.987 777.931 783.112 651.976C886.24 526.021 878.62 327.29 799.392 238.798C720.162 150.307 608.257 84.743 243.5 224.76C-121.257 364.777 -293.037 493.578 -263.352 570.909H-263.351ZM-514 -377.482C-514 -294.649 -489.64 -235.322 -399.268 -197C-308.897 -158.679 -221.582 -193.648 -133.991 -173.6C-46.401 -153.552 -46.401 -24.405 36.086 55.071C118.572 134.547 292.491 153.852 433.906 73.221C575.321 -7.411 639.426 -195.675 597.173 -306.681C554.919 -417.687 473.943 -519 83.236 -519C-307.471 -519 -514 -460.314 -514 -377.482Z" fill="#4B3F6B"/>
</g>
<defs>
<clipPath id="clip0">
<rect width="1440" height="250" fill="white"/>
</clipPath>
</defs>
</svg>
